fs/calendar_today_28_regular.svg

<svg viewBox="0 0 28 28" fill="none" xmlns="http://www.w3.org/2000/svg" height="1em" width="1em">
  <path d="M25 6.25C25 4.45507 23.5449 3 21.75 3H6.25C4.45507 3 3 4.45507 3 6.25V21.75C3 23.5449 4.45507 25 6.25 25H12.2483C12.2483 25 12.25 24.5184 12.25 24.25V23.5H6.25C5.2835 23.5 4.5 22.7165 4.5 21.75V9.503H23.5V21.75C23.5 22.7165 22.7165 23.5 21.75 23.5H15.75V24.25C15.75 24.5184 15.75 25 15.75 25H21.75C23.5449 25 25 23.5449 25 21.75V6.25ZM6.25 4.5H21.75C22.7165 4.5 23.5 5.2835 23.5 6.25V8.003H4.5V6.25C4.5 5.2835 5.2835 4.5 6.25 4.5ZM15.25 13.25C15.25 13.9404 14.6904 14.5 14 14.5C13.3096 14.5 12.75 13.9404 12.75 13.25C12.75 12.5596 13.3096 12 14 12C14.6904 12 15.25 12.5596 15.25 13.25ZM15.7517 20.3105C16.0613 20.5857 16.5354 20.5579 16.8105 20.2483C17.0857 19.9387 17.0579 19.4646 16.7483 19.1894L14.4983 17.1894C14.2141 16.9368 13.7859 16.9368 13.5017 17.1894L11.2517 19.1894C10.9421 19.4646 10.9142 19.9387 11.1894 20.2483C11.4646 20.5579 11.9387 20.5857 12.2483 20.3105L13.25 19.4201V25.25C13.25 25.6642 13.5858 26 14 26C14.4142 26 14.75 25.6642 14.75 25.25V19.4201L15.7517 20.3105Z" fill="#212121"/>
</svg>

<svg viewBox="0 0 28 28" fill="none" xmlns="http://www.w3.org/2000/svg" height="1em" width="1em">
  <path d="M25 6.25A3.25 3.25 0 0 0 21.75 3H6.25A3.25 3.25 0 0 0 3 6.25v15.5A3.25 3.25 0 0 0 6.25 25h5.998l.002-.75v-.75h-6a1.75 1.75 0 0 1-1.75-1.75V9.503h19V21.75a1.75 1.75 0 0 1-1.75 1.75h-6V25h6A3.25 3.25 0 0 0 25 21.75V6.25ZM6.25 4.5h15.5c.966 0 1.75.784 1.75 1.75v1.753h-19V6.25c0-.966.784-1.75 1.75-1.75Zm9 8.75a1.25 1.25 0 1 1-2.5 0 1.25 1.25 0 0 1 2.5 0Zm.502 7.06a.75.75 0 1 0 .996-1.12l-2.25-2a.75.75 0 0 0-.996 0l-2.25 2a.75.75 0 1 0 .996 1.12l1.002-.89v5.83a.75.75 0 0 0 1.5 0v-5.83l1.002.89Z" fill="#212121"/>
</svg>
